src/status/22/whatsie-tray.svg

<svg enable-background="new 0 0 1219.547 1225.016" viewBox="0 0 22 22" xmlns="http://www.w3.org/2000/svg">
 <path d="m11 2a9 9 0 0 0-9 9 9 9 0 0 0 1.572 5.07l-1.572 3.93 3.924-1.568a9 9 0 0 0 5.076 1.568 9 9 0 0 0 9-9 9 9 0 0 0-9-9zm-3.662 4.217c0.172 0 0.345-1e-3 0.496 8e-3 0.186 9e-3 0.389 0.016 0.582 0.447 0.23 0.512 0.734 1.793 0.799 1.922s0.107 0.28 0.021 0.456c-0.086 0.17-0.129 0.277-0.259 0.429-0.129 0.151-0.271 0.337-0.387 0.453-0.13 0.128-0.266 0.268-0.115 0.527s0.669 1.107 1.439 1.793c0.989 0.878 1.824 1.154 2.082 1.283 0.259 0.129 0.41 0.109 0.561-0.064s0.648-0.757 0.82-1.016c0.173-0.259 0.343-0.215 0.58-0.129s1.511 0.714 1.77 0.842c0.259 0.129 0.433 0.195 0.496 0.303 0.065 0.108 0.065 0.629-0.153 1.228-0.214 0.604-1.271 1.188-1.746 1.231s-0.918 0.22-3.105-0.647c-2.631-1.037-4.291-3.733-4.42-3.906s-1.059-1.404-1.059-2.678c0-1.273 0.669-1.899 0.906-2.158s0.52-0.324 0.692-0.324z" fill="#2e3440"/>
</svg>

<svg xmlns="http://www.w3.org/2000/svg" viewBox="0 0 22 22" style="enable-background:new 0 0 1219.547 1225.016">
 <path d="M 11 2 A 9 9 0 0 0 2 11 A 9 9 0 0 0 3.572 16.07 L 2 20 L 5.924 18.432 A 9 9 0 0 0 11 20 A 9 9 0 0 0 20 11 A 9 9 0 0 0 11 2 z M 7.338 6.217 C 7.51 6.217 7.683 6.216 7.834 6.225 C 8.02 6.234 8.223 6.241 8.416 6.672 C 8.646 7.184 9.15 8.465 9.215 8.594 C 9.28 8.723 9.322 8.874 9.236 9.05 C 9.15 9.22 9.107 9.327 8.977 9.479 C 8.848 9.63 8.706 9.816 8.59 9.932 C 8.46 10.06 8.324 10.2 8.475 10.459 C 8.626 10.718 9.144 11.566 9.914 12.252 C 10.903 13.13 11.738 13.406 11.996 13.535 C 12.255 13.664 12.406 13.644 12.557 13.471 C 12.708 13.298 13.205 12.714 13.377 12.455 C 13.55 12.196 13.72 12.24 13.957 12.326 C 14.194 12.412 15.468 13.04 15.727 13.168 C 15.986 13.297 16.16 13.363 16.223 13.471 C 16.288 13.579 16.288 14.1 16.07 14.699 C 15.856 15.303 14.799 15.887 14.324 15.93 C 13.849 15.973 13.406 16.15 11.219 15.283 C 8.588 14.246 6.928 11.55 6.799 11.377 C 6.67 11.204 5.74 9.973 5.74 8.699 C 5.74 7.426 6.409 6.8 6.646 6.541 C 6.883 6.282 7.166 6.217 7.338 6.217 z" style="fill:#2e3440;opacity:1;fill-opacity:1;stroke:none;fill-rule:nonzero"/>
</svg>
